X:680
T: Down the Hill
S: B.Breathnach: "Ceol Rince na hEireann" II/175 (gan ainm)
Z: B.Black
L: 1/8
M: 4/4
R: reel
K: G
G2 Bd g2 gf|d2 dc ABcA|G2 (3Bcd gbag|fdcA BGFA|
G2 (3Bcd g2 gf|dedc ABcA|G2 (3Bcd gbag|fdcA BG G2 :|
B2 AG BG (3GGG|B2 AG Bd d2|B2 AG BGGG|dBAG EG (3GGG|
B2 AG BG (3GGG|B2 AG Bdde|1 B2 AG BGGG|dBAG EG (3GGG :|2\
(3BcB AG G2 BG|dBAF DAAF||
